svg/transport/pinwheel_fill.svg

<?xml version="1.0" encoding="UTF-8"?>
<svg width="24px" height="24px" viewBox="0 0 24 24" version="1.1" xmlns="http://www.w3.org/2000/svg" xmlns:xlink="http://www.w3.org/1999/xlink">
    <title>pinwheel_fill</title>
    <g id="Icon" stroke="none" stroke-width="1" fill="none" fill-rule="evenodd">
        <g id="Transport" transform="translate(-912.000000, -240.000000)" fill-rule="nonzero">
            <g id="pinwheel_fill" transform="translate(912.000000, 240.000000)">
                <path d="M24,0 L24,24 L0,24 L0,0 L24,0 Z M12.5935,23.2578 L12.5819,23.2595 L12.5109,23.295 L12.4919,23.2987 L12.4767,23.295 L12.4057,23.2595 C12.3958,23.2564 12.387,23.259 12.3821,23.2649 L12.378,23.2758 L12.3609,23.7031 L12.3659,23.7235 L12.3769,23.7357 L12.4805,23.8097 L12.4953,23.8136 L12.5071,23.8097 L12.6107,23.7357 L12.6233,23.7197 L12.6267,23.7031 L12.6096,23.2758 C12.6076,23.2657 12.601,23.2593 12.5935,23.2578 Z M12.8584,23.1453 L12.8445,23.1473 L12.6598,23.2397 L12.6499,23.2499 L12.6472,23.2611 L12.6651,23.6906 L12.6699,23.7034 L12.6784,23.7105 L12.8793,23.8032 C12.8914,23.8069 12.9022,23.803 12.9078,23.7952 L12.9118,23.7812 L12.8777,23.1665 C12.8753,23.1546 12.8674,23.147 12.8584,23.1453 Z M12.143,23.1473 C12.1332,23.1424 12.1222,23.1453 12.1156,23.1526 L12.1099,23.1665 L12.0758,23.7812 C12.0751,23.7927 12.0828,23.8019 12.0926,23.8046 L12.1083,23.8032 L12.3092,23.7105 L12.3186,23.7024 L12.3225,23.6906 L12.3404,23.2611 L12.3372,23.2485 L12.3278,23.2397 L12.143,23.1473 Z" id="MingCute"></path>
                <path d="M12.5549,2.16782 C12.833,2.35331 13,2.66548 13,2.99976 L13,5.80688 C13.2436,5.77469 13.4879,5.7482 13.7324,5.7261 C14.7769,5.63171 16.2369,5.60624 17.3792,6.07442 C18.8519,6.67796 19.9943,8.17698 20.7145,9.32339 C21.174,10.0549 21.5897,10.8168 21.9229,11.6146 C22.0513,11.9232 22.0174,12.2765 21.8319,12.5546 C21.6464,12.8327 21.3343,12.9997 21,12.9997 L18.1929,12.9997 C18.2251,13.2433 18.2516,13.4877 18.2737,13.7322 C18.368,14.7766 18.3935,16.2366 17.9253,17.379 C17.3218,18.8516 15.8228,19.994 14.6764,20.7142 C13.9449,21.1737 13.1829,21.5895 12.3852,21.9226 C12.0766,22.0511 11.7233,22.0172 11.4452,21.8317 C11.1671,21.6462 11,21.334 11,20.9998 L11,18.1926 C10.7564,18.2248 10.5121,18.2513 10.2675,18.2734 C9.22312,18.3678 7.76314,18.3933 6.62078,17.9251 C5.14814,17.3216 4.00571,15.8225 3.28555,14.6761 C2.82603,13.9446 2.41027,13.1827 2.07714,12.3849 C1.94871,12.0763 1.98259,11.723 2.16807,11.4449 C2.35355,11.1668 2.66572,10.9998 3,10.9998 L5.80716,10.9998 C5.77496,10.7562 5.74848,10.5118 5.72638,10.2673 C5.63199,9.22287 5.60651,7.7629 6.07469,6.62053 C6.67823,5.1479 8.17726,4.00546 9.32366,3.2853 C10.0551,2.82579 10.8171,2.41002 11.6149,2.0769 C11.9235,1.94846 12.2768,1.98234 12.5549,2.16782 Z M12,11 C11.4477153,11 11,11.4477153 11,12 C11,12.5522847 11.4477153,13 12,13 C12.5522847,13 13,12.5522847 13,12 C13,11.4477153 12.5522847,11 12,11 Z" id="形状" fill="#09244B"></path>
            </g>
        </g>
    </g>
</svg>

<svg xmlns="http://www.w3.org/2000/svg" width="24" height="24"><g fill="none" fill-rule="nonzero"><path d="M24 0v24H0V0h24ZM12.594 23.258l-.012.002-.071.035-.02.004-.014-.004-.071-.036c-.01-.003-.019 0-.024.006l-.004.01-.017.428.005.02.01.013.104.074.015.004.012-.004.104-.074.012-.016.004-.017-.017-.427c-.002-.01-.009-.017-.016-.018Zm.264-.113-.014.002-.184.093-.01.01-.003.011.018.43.005.012.008.008.201.092c.012.004.023 0 .029-.008l.004-.014-.034-.614c-.003-.012-.01-.02-.02-.022Zm-.715.002a.023.023 0 0 0-.027.006l-.006.014-.034.614c0 .012.007.02.017.024l.015-.002.201-.093.01-.008.003-.011.018-.43-.003-.012-.01-.01-.184-.092Z"/><path fill="#09244B" d="M12.555 2.168A1 1 0 0 1 13 3v2.807c.244-.032.488-.059.732-.08 1.045-.095 2.505-.12 3.647.347 1.473.604 2.615 2.103 3.335 3.25.46.73.876 1.493 1.209 2.29A1.002 1.002 0 0 1 21 13h-2.807c.032.243.059.488.08.732.095 1.045.12 2.505-.348 3.647-.603 1.473-2.102 2.615-3.249 3.335-.731.46-1.493.876-2.29 1.209A1.001 1.001 0 0 1 11 21v-2.807a17.84 17.84 0 0 1-.732.08c-1.045.095-2.505.12-3.647-.348-1.473-.603-2.615-2.103-3.335-3.249a15.698 15.698 0 0 1-1.209-2.291A1.002 1.002 0 0 1 3 11h2.807a17.859 17.859 0 0 1-.08-.733c-.095-1.044-.12-2.504.348-3.646.603-1.473 2.102-2.616 3.249-3.336.731-.46 1.493-.875 2.29-1.208.31-.129.663-.095.94.09ZM12 11a1 1 0 1 0 0 2 1 1 0 0 0 0-2Z"/></g></svg>
